!!!COM: Mozart
!!!OTL: 8 Variationen uber das Lied "Ein Weib ist das herrlichste Ding"
!!!Variation: Variation 8 b (a2)
**function	**harm	**kern	**kern
*M2/4	*M2/4	*staff2	*staff1
*F:	*F:	*clefF4	*clefG2
*tb16	*	*k[b-]	*k[b-]
*	*	*M2/4	*M2/4
=-	=-	=-	=-
8T	8V	8r	8c
=	=	=365	=365
2T	2I	8r	(8f
.	.	(8A	4c)
.	.	8GL	.
.	.	8FJ)	(8f
=	=	=366	=366
2T	2V	8r	8g
.	.	(8E	4c)
.	.	8DL	.
.	.	8CJ	(8g
=	=	=367	=367
8T	8I	8FL	8aL
8T	8V65/vi	8C#J	8eJ
8T	8vi	8DL)	8fL)
8T	8ii6	8BB-'J	8g'J 8b-'
=	=	=368	=368
4T	4C64	4.C	(4f 4a
4T	4V	.	8eL) 8g
.	.	8r	8cc'J
=	=	=369	=369
8T	8I	8FF' 8F'	8a' 8cc'
4T	4V43	(4GG 4G	(4g 4b-
8T	8I6	8AA) 8A	8f) 8a
=	=	=370	=370
8P	8IV	8BB-' 8B-'	8b-' 8dd'
4P	4viio43	(4C 4c	(4g 4b- 4ee
8P	8viio7/V	8D) 8d	8f) 8a 8ff
=	=	=371	=371
*	*	*^	*^
4D	4C64	8AL	8CL	8f'L	4r
.	.	8AJ	8CJ	8f'J	.
4D	4V7	8B-L	8CL	(16gLL	4e
.	.	.	.	16f	.
.	.	8B-J	8CJ	16g	.
.	.	.	.	16aJJ)	.
=	=	=372	=372	=372	=372
4.T	4.I	8A	8FL	4f	4f
.	.	8r	8CJ	.	.
.	.	4r	8FF	8r	8r
*	*	*	*	*v	*v
*	*	*v	*v	*
*-	*-	*-	*-
